fs/calendar_agenda_28_regular.svg

<svg viewBox="0 0 28 28" fill="none" xmlns="http://www.w3.org/2000/svg" height="1em" width="1em">
  <path d="M25 21.75C25 23.5449 23.5449 25 21.75 25H6.25C4.45507 25 3 23.5449 3 21.75V6.25C3 4.45507 4.45507 3 6.25 3H21.75C23.5449 3 25 4.45507 25 6.25V21.75ZM23.5 21.75V6.25C23.5 5.2835 22.7165 4.5 21.75 4.5H6.25C5.2835 4.5 4.5 5.2835 4.5 6.25V21.75C4.5 22.7165 5.2835 23.5 6.25 23.5H21.75C22.7165 23.5 23.5 22.7165 23.5 21.75ZM19.75 14C19.75 14.3797 19.4678 14.6935 19.1018 14.7432L19 14.75H9C8.58579 14.75 8.25 14.4142 8.25 14C8.25 13.6203 8.53215 13.3065 8.89823 13.2568L9 13.25H19C19.4142 13.25 19.75 13.5858 19.75 14ZM19.75 19.25C19.75 19.6297 19.4678 19.9435 19.1018 19.9932L19 20H9C8.58579 20 8.25 19.6642 8.25 19.25C8.25 18.8703 8.53215 18.5565 8.89823 18.5068L9 18.5H19C19.4142 18.5 19.75 18.8358 19.75 19.25ZM19.75 8.75C19.75 9.1297 19.4678 9.44349 19.1018 9.49315L19 9.5H9C8.58579 9.5 8.25 9.16421 8.25 8.75C8.25 8.3703 8.53215 8.05651 8.89823 8.00685L9 8H19C19.4142 8 19.75 8.33579 19.75 8.75Z" fill="#212121"/>
</svg>

<svg viewBox="0 0 28 28" fill="none" xmlns="http://www.w3.org/2000/svg" height="1em" width="1em">
  <path d="M25 21.75A3.25 3.25 0 0 1 21.75 25H6.25A3.25 3.25 0 0 1 3 21.75V6.25A3.25 3.25 0 0 1 6.25 3h15.5A3.25 3.25 0 0 1 25 6.25v15.5Zm-1.5 0V6.25a1.75 1.75 0 0 0-1.75-1.75H6.25A1.75 1.75 0 0 0 4.5 6.25v15.5c0 .966.784 1.75 1.75 1.75h15.5a1.75 1.75 0 0 0 1.75-1.75ZM19.75 14a.75.75 0 0 1-.648.743L19 14.75H9a.75.75 0 0 1-.102-1.493L9 13.25h10a.75.75 0 0 1 .75.75Zm0 5.25a.75.75 0 0 1-.648.743L19 20H9a.75.75 0 0 1-.102-1.493L9 18.5h10a.75.75 0 0 1 .75.75Zm0-10.5a.75.75 0 0 1-.648.743L19 9.5H9a.75.75 0 0 1-.102-1.493L9 8h10a.75.75 0 0 1 .75.75Z" fill="#212121"/>
</svg>
